X:1
T:Johnny's Gone to France -- Reel
R:reel
B:Ryan's Mammoth Collection
Z: Contributed by Ray Davies,  ray:davies99.freeserve.co.uk
M:C|
L:1/8
K:G
vg2(fg) dcAc  | dBcA FGAF | .G(gfg) dcAd | dBcB dBcA |
 g2(fg) dcAc  | dBcA FGAF | .G(gfg) dcAd | dBcA BGG2 ::
.Gv(gfg) gbag | fdcA FGAF | .G(gfg) gbag | fdcA AGG2 |
 g2(dg)  gbag | fdcA defg | .aaag   fgbg | fdcA AGG2 :|
